svg/fluentui-system-icons/ic_fluent_mail_inbox_dismiss_28_filled.svg

<svg width="28" height="28" viewBox="0 0 28 28" fill="none" xmlns="http://www.w3.org/2000/svg">
<path d="M26 7.5C26 11.0899 23.0899 14 19.5 14C15.9101 14 13 11.0899 13 7.5C13 3.91015 15.9101 1 19.5 1C23.0899 1 26 3.91015 26 7.5ZM16.8536 4.14645C16.6583 3.95118 16.3417 3.95118 16.1464 4.14645C15.9512 4.34171 15.9512 4.65829 16.1464 4.85355L18.7929 7.5L16.1464 10.1464C15.9512 10.3417 15.9512 10.6583 16.1464 10.8536C16.3417 11.0488 16.6583 11.0488 16.8536 10.8536L19.5 8.20711L22.1464 10.8536C22.3417 11.0488 22.6583 11.0488 22.8536 10.8536C23.0488 10.6583 23.0488 10.3417 22.8536 10.1464L20.2071 7.5L22.8536 4.85355C23.0488 4.65829 23.0488 4.34171 22.8536 4.14645C22.6583 3.95118 22.3417 3.95118 22.1464 4.14645L19.5 6.79289L16.8536 4.14645ZM25 22.75V12.5991C24.5572 13.0765 24.053 13.4961 23.5 13.8454V16H17.5L17.3982 16.0068C17.0322 16.0565 16.75 16.3703 16.75 16.75C16.75 18.2688 15.5188 19.5 14 19.5C12.4812 19.5 11.25 18.2688 11.25 16.75L11.2432 16.6482C11.1935 16.2822 10.8797 16 10.5 16H4.5V7.25C4.5 6.2835 5.2835 5.5 6.25 5.5H12.2696C12.4146 4.97463 12.6153 4.47237 12.865 4H6.25C4.45507 4 3 5.45507 3 7.25V22.75C3 24.5449 4.45507 26 6.25 26H21.75C23.5449 26 25 24.5449 25 22.75Z" fill="#212121"/>
</svg>

<svg xmlns="http://www.w3.org/2000/svg" width="28" height="28"><path d="M26 7.5a6.5 6.5 0 1 1-13 0 6.5 6.5 0 0 1 13 0Zm-9.146-3.354a.5.5 0 0 0-.708.708L18.793 7.5l-2.647 2.646a.5.5 0 0 0 .708.708L19.5 8.207l2.646 2.647a.5.5 0 0 0 .708-.708L20.207 7.5l2.647-2.646a.5.5 0 0 0-.708-.708L19.5 6.793l-2.646-2.647ZM25 22.75V12.6a7.535 7.535 0 0 1-1.5 1.245V16h-6l-.102.007a.75.75 0 0 0-.648.743 2.75 2.75 0 1 1-5.5 0l-.007-.102A.75.75 0 0 0 10.5 16h-6V7.25c0-.966.784-1.75 1.75-1.75h6.02a7.45 7.45 0 0 1 .595-1.5H6.25A3.25 3.25 0 0 0 3 7.25v15.5A3.25 3.25 0 0 0 6.25 26h15.5A3.25 3.25 0 0 0 25 22.75Z"/></svg>
